X:196
T: ICH BIN DER DOKTOR EISENBART
N: B0681
O: Europa, Mitteleuropa, Deutschland
R: Scherz - Lied
M: 2/4
L: 1/16
K: C
G,2 | C3G,G,2G,2 | A,2G,2G,4
G,A,B,CD2B,2 | C4z2
G,2 | C3G,G,2G,2 | A,2G,2G,4
G,A,B,CD2B,2 | C4z2
E2 | D2E2D2E2 | D2E2D4
DDDDD2C2 | B,2A,2G,2
G,2 | G,3CC2C2 | C3EE4
DDDDE2D2 | C4z2

